X:568
T: Yaoshang shanling bupagao
N: C1988
O: China, Fujian Shanghang
S: II, 562, 2)]
R: Shange, Gutianshange]
M: 2/4
L: 1/16
K: E
B2B4Be | f8- | f8 | f2efecB6
f2efe2cB | c8- | c8 | e2cec2B2 | B8- | B4z4
G2B4G2 | B4B2B2 | B8
f2cec2B2 | c8- | c2f2c2B2 | B3Bcec2 | B8- | B4z4

